X:1
T:Miss Gordon of Cairnfield's Reel
T:Miss Gordon of Cairnfield's Reel
T:William Marshall
C:William Marshall
%%score { 1 2 }
L:1/8
M:2/2
K:Bb
V:1 treble 
V:2 bass 
V:1
 E | TD2 (B,D) FDBF | DB,FD ECCE | TD2 B,D FDBF | ecdA BB,B, :| e | defd gefd | ecdB ecce | %8
 defd gefd | (Tgab).f dBBe | defd gefd | ecdc eccd | DB,FD GEBG | FDGE DB,B, |] %14
V:2
 z | B,,2 B,,2 B,,2 B,,2 | B,,2 B,,2 C,2 C,2 | B,,2 B,,2 B,2 B,2 | E,2 F,2 B,,2 B,, :| z | %6
 B,,2 B,,2 C,2 B,,2 | A,,2 B,,2 C,2 C,2 | B,,2 D,2 C,2 D,2 | E,2 F,2 B,,2 B,,2 | %10
 B,,2 B,,2 A,,2 B,,2 | E,2 D,2 C,2 C,2 | B,,2 B,,2 E,2 E,2 | D,2 E,2 B,,2 B,, |] %14

